X:543
T:Reel 543
M:4/4
K:Dmix
L:1/8
de|:c2AB AGEG|cBcG EGAG|c2AB cBAG|EGAB cGAG|c2AB cBcA|GEDE GEGc|ABAB cBcd|eaae dcAd|egg2 agag|eaag edd2|egab a2ag|eaag eddf|egg2 agag|eged egdb|aggf f2ed|eaag eAA2|
